X:134
T:AIR XLIX. How can I be sad on my Wedding-Day
O:england
B:Joseph Mitchell: "The Highland Fair" (1731)
M:6/8
L:1/8
K:C
E/F/|G>AG E2C |E2G c2G |A>BA F2D|EFG c>dc|
C>DC c>de|edc B>AG|ABA  F2D|GAB c2 |]
